public/avatar/shoe/45.svg

<svg xmlns:xlink="http://www.w3.org/1999/xlink" height="38.3" width="36.05" xmlns="http://www.w3.org/2000/svg"><use height="16.4" transform="translate(9 12.15)" width="23.4" xlink:href="#a"/><defs><g id="a"><path d="m4.9-1.05-1.25.4-1.75.5-1.8.1-1.35-.1-.5-.5-1.75-.9q2.25-.85 4.85-.55 1.9.15 3.55 1.05M-8.35 1.6q2.25.8 3.4 3 1.35 2.55.45 5.25l-3.75.45q-3.15-.05-5.9-1.75v-.1q-.4-1.95.35-4 .7-2.05 5.25-2.9l.2.05M3.6 7.85q-.65-.55-.7-1.45-.05-1.05.15-2 .1-.95.5-1.8.4-.9 1.05-1.55L6 0q2.4 1.55 1.9 4.95L6.45 6.4 5.5 7l-1.9.85" fill="#5192d2" fill-rule="evenodd" transform="translate(14.8 2.7)"/><path d="m-1.25-.15 1.35.1 1.8-.1 1.75-.5 1.25-.4L6 0 4.6 1.05q-.65.65-1.05 1.55-.4.85-.5 1.8-.2.95-.15 2 .05.9.7 1.45l-3.85 1.2-.6.15-3.65.65q.9-2.7-.45-5.25-1.15-2.2-3.4-3l1.6.1 1.7.2q.95.15 1.75.7l1.55 1.2 1.1.15.4-.15q.5-.4.5-1.2-.05-1-.6-1.8l-.9-.95" fill="#fff" fill-rule="evenodd" transform="translate(14.8 2.7)"/><path d="m-3.5-1.55 1.75.9.5.5.9.95q.55.8.6 1.8 0 .8-.5 1.2l-.4.15-1.1-.15-1.55-1.2q-.8-.55-1.75-.7l-1.7-.2-1.6-.1-.2-.05-.05-.05-.05-.35.2-.6 1.1-1.5q.85-.6 1.8-.7l2.05.1" fill="#00439c" fill-rule="evenodd" transform="translate(14.8 2.7)"/><path d="m-4.5 9.85 3.65-.65.6-.15 3.85-1.2L5.5 7l.95-.6L7.9 4.95q.35 2.85.15 3.15l-.1.2L6.2 9.75l-2.75 1.3L-.2 12.2l-.55.15-3.75.65q-5.05.65-8.75-.7l-.55-.3q-.3-.3-.35-3.45 2.75 1.7 5.9 1.75l3.75-.45m7.75-.65q-.05.9.2 1.85-.25-.95-.2-1.85M6.2 7.75v2-2M-.45 10.2l.25 2-.25-2M-14.1 8.65l-.05-.1.05.1m9.6 2.5V13v-1.85" fill="#ccc" fill-rule="evenodd" transform="translate(14.8 2.7)"/><path d="M-14.15 8.55h-.05l.05-.1v.1" fill="#8f8e01" fill-rule="evenodd" transform="translate(14.8 2.7)"/><path d="M4.9-1.05q-1.65-.9-3.55-1.05-2.6-.3-4.85.55l-2.05-.1q-.95.1-1.8.7l-1.1 1.5M6 0 4.9-1.05M6 0q2.4 1.55 1.9 4.95.35 2.85.15 3.15l-.1.2L6.2 9.75l-2.75 1.3L-.2 12.2l-.55.15-3.75.65q-5.05.65-8.75-.7l-.55-.3q-.3-.3-.35-3.45h-.05l.05-.1q-.4-1.95.35-4 .7-2.05 5.25-2.9m12 9.5q-.25-.95-.2-1.85m2.95.55v-2M-.2 12.2l-.25-2m-13.7-1.65.05.1m-.05-.2v.1M-4.5 13v-1.85" fill="none" stroke="#00439c" stroke-linecap="round" stroke-linejoin="round" transform="translate(14.8 2.7)"/></g></defs></svg>

<?xml version="1.0" encoding="UTF-8" standalone="no"?>
<svg xmlns:xlink="http://www.w3.org/1999/xlink" height="38.3px" width="36.05px" xmlns="http://www.w3.org/2000/svg">
  <g transform="matrix(1.0, 0.0, 0.0, 1.0, 23.8, 14.85)">
    <use height="16.4" transform="matrix(1.0, 0.0, 0.0, 1.0, -14.8, -2.7)" width="23.4" xlink:href="#shape0"/>
  </g>
  <defs>
    <g id="shape0" transform="matrix(1.0, 0.0, 0.0, 1.0, 14.8, 2.7)">
      <path d="M4.9 -1.05 L3.65 -0.65 1.9 -0.15 0.1 -0.05 -1.25 -0.15 -1.75 -0.65 -3.5 -1.55 Q-1.25 -2.4 1.35 -2.1 3.25 -1.95 4.9 -1.05 M-8.35 1.6 Q-6.1 2.4 -4.95 4.6 -3.6 7.15 -4.5 9.85 L-8.25 10.3 Q-11.4 10.25 -14.15 8.55 L-14.15 8.45 Q-14.55 6.5 -13.8 4.45 -13.1 2.4 -8.55 1.55 L-8.35 1.6 M3.6 7.85 Q2.95 7.3 2.9 6.4 2.85 5.35 3.05 4.4 3.15 3.45 3.55 2.6 3.95 1.7 4.6 1.05 L6.0 0.0 Q8.4 1.55 7.9 4.95 L6.45 6.4 5.5 7.0 3.6 7.85" fill="#5192d2" fill-rule="evenodd" stroke="none"/>
      <path d="M-1.25 -0.15 L0.1 -0.05 1.9 -0.15 3.65 -0.65 4.9 -1.05 6.0 0.0 4.6 1.05 Q3.95 1.7 3.55 2.6 3.15 3.45 3.05 4.4 2.85 5.35 2.9 6.4 2.95 7.3 3.6 7.85 L-0.25 9.05 -0.85 9.2 -4.5 9.85 Q-3.6 7.15 -4.95 4.6 -6.1 2.4 -8.35 1.6 L-6.75 1.7 -5.05 1.9 Q-4.1 2.05 -3.3 2.6 L-1.75 3.8 -0.65 3.95 -0.25 3.8 Q0.25 3.4 0.25 2.6 0.2 1.6 -0.35 0.8 L-1.25 -0.15" fill="#ffffff" fill-rule="evenodd" stroke="none"/>
      <path d="M-3.5 -1.55 L-1.75 -0.65 -1.25 -0.15 -0.35 0.8 Q0.2 1.6 0.25 2.6 0.25 3.4 -0.25 3.8 L-0.65 3.95 -1.75 3.8 -3.3 2.6 Q-4.1 2.05 -5.05 1.9 L-6.75 1.7 -8.35 1.6 -8.55 1.55 -8.6 1.5 -8.65 1.15 -8.45 0.55 -7.35 -0.95 Q-6.5 -1.55 -5.55 -1.65 L-3.5 -1.55" fill="#00439c" fill-rule="evenodd" stroke="none"/>
      <path d="M-4.5 9.85 L-0.85 9.2 -0.25 9.05 3.6 7.85 5.5 7.0 6.45 6.4 7.9 4.95 Q8.25 7.8 8.05 8.1 L7.95 8.3 6.2 9.75 3.45 11.05 -0.2 12.2 -0.75 12.35 -4.5 13.0 Q-9.55 13.65 -13.25 12.3 L-13.8 12.0 Q-14.1 11.7 -14.15 8.55 -11.4 10.25 -8.25 10.3 L-4.5 9.85 M3.25 9.2 Q3.2 10.1 3.45 11.05 3.2 10.1 3.25 9.2 M6.2 7.75 L6.2 9.75 6.2 7.75 M-0.45 10.2 L-0.2 12.2 -0.45 10.2 M-14.1 8.65 L-14.15 8.55 -14.1 8.65 M-4.5 11.15 L-4.5 13.0 -4.5 11.15" fill="#cccccc" fill-rule="evenodd" stroke="none"/>
      <path d="M-14.15 8.55 L-14.2 8.55 -14.15 8.45 -14.15 8.55" fill="#8f8e01" fill-rule="evenodd" stroke="none"/>
      <path d="M4.9 -1.05 Q3.25 -1.95 1.35 -2.1 -1.25 -2.4 -3.5 -1.55 L-5.55 -1.65 Q-6.5 -1.55 -7.35 -0.95 L-8.45 0.55 M6.0 0.0 L4.9 -1.05 M6.0 0.0 Q8.4 1.55 7.9 4.95 8.25 7.8 8.05 8.1 L7.95 8.3 6.2 9.75 3.45 11.05 -0.2 12.2 -0.75 12.35 -4.5 13.0 Q-9.55 13.65 -13.25 12.3 L-13.8 12.0 Q-14.1 11.7 -14.15 8.55 L-14.2 8.55 -14.15 8.45 Q-14.55 6.5 -13.8 4.45 -13.1 2.4 -8.55 1.55 M3.45 11.05 Q3.2 10.1 3.25 9.2 M6.2 9.75 L6.2 7.75 M-0.2 12.2 L-0.45 10.2 M-14.15 8.55 L-14.1 8.65 M-14.15 8.45 L-14.15 8.55 M-4.5 13.0 L-4.5 11.15" fill="none" stroke="#00439c" stroke-linecap="round" stroke-linejoin="round" stroke-width="1.0"/>
    </g>
  </defs>
</svg>
